; generated by PrusaSlicer 2.9.4 on 2026-06-01 at 18:26:11 UTC


;
;
; 

; external perimeters extrusion width = 0.45mm
; perimeters extrusion width = 0.45mm
; infill extrusion width = 0.45mm
; solid infill extrusion width = 0.45mm
; top infill extrusion width = 0.40mm
; support material extrusion width = 0.35mm
; first layer extrusion width = 0.42mm

; external perimeters extrusion width = 0.45mm
; perimeters extrusion width = 0.45mm
; infill extrusion width = 0.45mm
; solid infill extrusion width = 0.45mm
; top infill extrusion width = 0.40mm
; support material extrusion width = 0.35mm
; first layer extrusion width = 0.42mm

; external perimeters extrusion width = 0.45mm
; perimeters extrusion width = 0.45mm
; infill extrusion width = 0.45mm
; solid infill extrusion width = 0.45mm
; top infill extrusion width = 0.40mm
; support material extrusion width = 0.35mm
; first layer extrusion width = 0.42mm

M73 P0 R6
M73 Q0 S6
M201 X1000 Y1000 Z200 E5000 ; sets maximum accelerations, mm/sec^2
M203 X200 Y200 Z12 E120 ; sets maximum feedrates, mm / sec
M204 S1250 T1250 ; sets acceleration (S) and retract acceleration (R), mm/sec^2
M205 X8.00 Y8.00 Z0.40 E4.50 ; sets the jerk limits, mm/sec
M205 S0 T0 ; sets the minimum extruding and travel feed rate, mm/sec

; printing object Puncher.stl id:0 copy 0
; stop printing object Puncher.stl id:0 copy 0
; printing object Bumper.stl_3 id:1 copy 0
; stop printing object Bumper.stl_3 id:1 copy 0
; printing object Bumper.stl_3 id:2 copy 0
; stop printing object Bumper.stl_3 id:2 copy 0

;TYPE:Custom
M862.3 P "MK3S" ; printer model check
M862.1 P0.4 ; nozzle diameter check
M115 U3.14.1 ; tell printer latest fw version
G90 ; use absolute coordinates
M83 ; extruder relative mode
M104 S250 ; set extruder temp
M140 S85 ; set bed temp
M190 S85 ; wait for bed temp
M109 S250 ; wait for extruder temp
G28 W ; home all without mesh bed level
G80 X112.388 Y64.7061 W19.8664 H47.0446 ; mesh bed levelling

G1 Z0.2 F720
G1 Y-3 F1000 ; go outside print area
G92 E0
G1 X60 E9 F1000 ; intro line
G1 X100 E12.5 F1000 ; intro line
M73 P1 R6
M73 Q1 S6

G92 E0
M221 S95

; Don't change E values below. Excessive value can damage the printer.

M907 E538 ; set extruder motor current
G21 ; set units to millimeters
G90 ; use absolute coordinates
M83 ; use relative distances for extrusion

M900 K0.08 ; Filament gcode LA 1.5
M900 K45 ; Filament gcode LA 1.0




M107
;LAYER_CHANGE
;Z:0.2
;HEIGHT:0.2
G1 E-1 F2100
G1 Z.4 F720
G1 X113.207 Y66.062 F10800
G1 Z.2 F720
G1 E1 F2100
M204 S800
;TYPE:Skirt/Brim
;WIDTH:0.42
G1 F1200
G1 X114.065 Y65.35 E.03496
G1 X115 Y64.999 E.03131
G1 X115.893 Y64.895 E.02819
G1 X117.804 Y65.644 E.06436
G1 X130.304 Y78.144 E.55427
G1 X131.053 Y79.846 E.0583
M73 P2 R6
M73 Q2 S6
G1 X132.063 Y102.888 E.72316
G1 X132.066 Y107 E.12893
M73 P2 R5
G1 X131.673 Y108.363 E.04448
G1 X130.795 Y109.215 E.03836
G1 X128.026 Y110.825 E.10043
G1 X127.056 Y111.233 E.03299
G1 X126.175 Y111.458 E.02851
G1 X125.128 Y111.562 E.03299
G1 X124.22 Y111.517 E.0285
G1 X122.944 Y111.233 E.04099
G1 X121.974 Y110.825 E.03299
G1 X119.205 Y109.215 E.10043
G1 X118.226 Y108.188 E.04449
G1 X117.958 Y107.35 E.02759
G1 X112.575 Y68.216 E1.23857
G1 X112.573 Y67.529 E.02154
M73 P3 R5
M73 Q3 S6
G1 X112.668 Y67.082 E.01433
G1 X113.179 Y66.115 E.03429
M204 S1000
G1 X113.492 Y66.309 F10800
M204 S800
G1 F1200
G1 X114.255 Y65.675 E.0311
G1 X115.074 Y65.368 E.02742
G1 X115.907 Y65.271 E.02629
G1 X117.537 Y65.911 E.05491
G1 X130.037 Y78.411 E.55427
G1 X130.676 Y79.862 E.04971
G1 X131.686 Y102.904 E.72316
G1 X131.689 Y107 E.12843
M73 P4 R5
G1 X131.298 Y108.248 E.04101
M73 Q4 S6
G1 X130.605 Y108.889 E.0296
G1 X127.862 Y110.485 E.0995
G1 X126.927 Y110.879 E.03181
G1 X126.119 Y111.085 E.02614
G1 X125.109 Y111.186 E.03183
G1 X123.881 Y111.085 E.03863
G1 X123.073 Y110.879 E.02614
G1 X122.138 Y110.485 E.03181
G1 X119.395 Y108.889 E.0995
G1 X118.332 Y107.298 E.05999
G1 X112.948 Y68.164 E1.23858
G1 X112.947 Y67.579 E.01834
G1 X113.032 Y67.178 E.01285
G1 X113.464 Y66.362 E.02895
M204 S1000
;WIPE_START
G1 F8640
G1 X113.492 Y66.309 E-.01384
G1 X114.255 Y65.675 E-.22906
G1 X115.074 Y65.368 E-.20196
G1 X115.907 Y65.271 E-.19364
G1 X117.365 Y65.843 E-.3615
;WIPE_END
G1 Z.4 F720
; printing object Puncher.stl id:0 copy 0
G1 X129.25 Y103.53 F10800
G1 Z.2 F720
M73 P5 R5
G1 E1 F2100
M73 Q5 S6
M204 S800
;TYPE:External perimeter
;WIDTH:0.5
G1 F1200
G1 X129.25 Y104.191 E.02512
;WIDTH:0.503462
G1 X129.248 Y104.231 E.00153
M204 S1000
;WIPE_START
G1 F8640
G1 X129.25 Y104.191 E-.00925
G1 X129.25 Y103.53 E-.15263
;WIPE_END
G1 E-.83812 F2100
G1 Z.4 F720
G1 X129.25 Y106.47 F10800
G1 Z.2 F720
G1 E1 F2100
M204 S800
;WIDTH:0.5
G1 F1200
M73 Q5 S5
G1 X129.25 Y105.809 E.02512
M204 S1000
;WIPE_START
G1 F8640
G1 X129.25 Y106.47 E-.15263
;WIPE_END
G1 E-.84737 F2100
G1 Z.4 F720
G1 X120.75 Y106.47 F10800
G1 Z.2 F720
G1 E1 F2100
M204 S800
;WIDTH:0.499994
G1 F1200
G1 X120.75 Y105.809 E.02512
M204 S1000
;WIPE_START
G1 F8640
G1 X120.75 Y106.47 E-.15263
;WIPE_END
G1 E-.84737 F2100
G1 Z.4 F720
G1 X120.75 Y103.53 F10800
G1 Z.2 F720
G1 E1 F2100
M204 S800
G1 F1200
G1 X120.75 Y104.191 E.02512
;WIDTH:0.503458
G1 X120.752 Y104.231 E.00153
M204 S1000
;WIPE_START
G1 F8640
G1 X120.75 Y104.191 E-.00925
G1 X120.75 Y103.53 E-.15263
;WIPE_END
G1 E-.83812 F2100
G1 Z.4 F720
G1 X128.112 Y105 F10800
G1 Z.2 F720
G1 E1 F2100
M204 S800
;TYPE:Perimeter
;WIDTH:0.419999
G1 F1200
G1 X127.958 Y105.213 E.00824
G1 X127.812 Y105.71 E.01624
G1 X127.543 Y106.255 E.01906
G1 X127.213 Y106.765 E.01905
G1 X126.819 Y107.169 E.01769
G1 X126.354 Y107.486 E.01765
G1 X125.834 Y107.705 E.01769
G1 X125.282 Y107.817 E.01766
G1 X124.718 Y107.817 E.01768
G1 X124.166 Y107.705 E.01766
G1 X123.646 Y107.486 E.01769
G1 X123.181 Y107.169 E.01765
G1 X122.787 Y106.765 E.01769
G1 X122.457 Y106.255 E.01905
G1 X122.188 Y105.71 E.01906
G1 X122.093 Y105.338 E.01204
G1 X121.888 Y105 E.01239
G1 X122.042 Y104.787 E.00824
G1 X122.188 Y104.29 E.01624
G1 X122.457 Y103.745 E.01906
G1 X122.787 Y103.235 E.01905
G1 X123.181 Y102.831 E.01769
G1 X123.646 Y102.514 E.01765
G1 X124.166 Y102.295 E.01769
G1 X124.447 Y102.238 E.00899
G1 X124.996 Y102.168 E.01735
G1 X125.56 Y102.225 E.01777
G1 X126.099 Y102.391 E.01768
G1 X126.594 Y102.661 E.01768
G1 X127.026 Y103.023 E.01767
G1 X127.38 Y103.466 E.01778
G1 X127.814 Y104.3 E.02948
G1 X127.907 Y104.662 E.01172
G1 X128.081 Y104.949 E.01052
M204 S1000
G1 X128.889 Y105.086 F10800
M204 S800
G1 F1200
G1 X128.847 Y105.07 E.00141
G1 X128.404 Y105.232 E.01479
G1 X128.296 Y105.381 E.00577
G1 X128.168 Y105.841 E.01497
G1 X127.872 Y106.442 E.02101
G1 X127.509 Y107.002 E.02092
G1 X127.063 Y107.459 E.02002
G1 X126.535 Y107.819 E.02004
G1 X125.946 Y108.067 E.02004
G1 X125.32 Y108.194 E.02003
G1 X124.68 Y108.194 E.02007
G1 X124.054 Y108.067 E.02003
G1 X123.465 Y107.819 E.02004
G1 X122.937 Y107.459 E.02004
G1 X122.491 Y107.002 E.02002
G1 X122.128 Y106.442 E.02092
G1 X121.832 Y105.841 E.02101
G1 X121.747 Y105.498 E.01108
G1 X121.596 Y105.232 E.00959
G1 X121.185 Y105.068 E.01387
G1 X121.111 Y105.086 E.00239
G1 X121.111 Y104.914 E.00539
G1 X121.153 Y104.93 E.00141
G1 X121.596 Y104.768 E.01479
G1 X121.704 Y104.619 E.00577
G1 X121.832 Y104.159 E.01497
G1 X122.128 Y103.558 E.02101
G1 X122.491 Y102.998 E.02092
G1 X122.937 Y102.541 E.02002
G1 X123.465 Y102.181 E.02004
G1 X124.054 Y101.933 E.02004
G1 X124.372 Y101.868 E.01018
M73 P6 R5
G1 X125.007 Y101.79 E.02006
G1 X125.635 Y101.854 E.01979
G1 X126.247 Y102.042 E.02007
G1 X126.808 Y102.348 E.02004
G1 X127.297 Y102.758 E.02001
G1 X127.697 Y103.26 E.02013
G1 X128.17 Y104.166 E.03205
G1 X128.253 Y104.502 E.01085
G1 X128.404 Y104.768 E.00959
G1 X128.815 Y104.932 E.01387
M73 Q6 S5
G1 X128.889 Y104.914 E.00239
G1 X128.889 Y105.026 E.00351
M204 S1000
G1 X128.565 Y105.837 F10800
M204 S800
;TYPE:External perimeter
G1 F1200
G1 X128.524 Y105.971 E.00439
G1 X128.2 Y106.628 E.02297
G1 X127.806 Y107.238 E.02277
G1 X127.306 Y107.749 E.02242
G1 X126.716 Y108.152 E.0224
G1 X126.058 Y108.429 E.02238
G1 X125.357 Y108.571 E.02243
G1 X124.643 Y108.571 E.02239
G1 X123.942 Y108.429 E.02243
G1 X123.284 Y108.152 E.02238
G1 X122.694 Y107.749 E.0224
G1 X122.194 Y107.238 E.02242
G1 X121.8 Y106.628 E.02277
G1 X121.476 Y105.971 E.02297
G1 X121.367 Y105.55 E.01364
G1 X121.194 Y105.445 E.00635
;WIDTH:0.454822
G1 X120.85 Y105.648 E.01368
;WIDTH:0.499994
G1 X120.75 Y105.809 E.0072
G1 X120.736 Y105.555 E.00967
;WIDTH:0.459997
G1 X120.721 Y105.302 E.00879
;WIDTH:0.419999
G1 X120.721 Y104.698 E.01894
;WIDTH:0.461729
G1 X120.737 Y104.465 E.00813
;WIDTH:0.503458
G1 X120.752 Y104.231 E.00898
G1 X120.847 Y104.355 E.00598
;WIDTH:0.464454
G1 X121.183 Y104.554 E.01369
;WIDTH:0.419999
G1 X121.331 Y104.5 E.00494
G1 X121.476 Y104.029 E.01545
G1 X121.8 Y103.372 E.02297
G1 X122.194 Y102.762 E.02277
G1 X122.694 Y102.251 E.02242
G1 X123.284 Y101.848 E.0224
G1 X123.942 Y101.571 E.02238
G1 X124.459 Y101.466 E.01654
G1 X125.018 Y101.412 E.01761
G1 X125.711 Y101.482 E.02184
G1 X126.394 Y101.693 E.02241
G1 X127.021 Y102.035 E.02239
G1 X127.569 Y102.494 E.02241
G1 X128.015 Y103.053 E.02242
G1 X128.525 Y104.031 E.03458
G1 X128.633 Y104.45 E.01357
G1 X128.806 Y104.555 E.00635
;WIDTH:0.445932
G1 X129.085 Y104.398 E.01073
;WIDTH:0.474697
G1 X129.167 Y104.314 E.00421
;WIDTH:0.503462
G1 X129.248 Y104.231 E.00444
G1 X129.263 Y104.364 E.00513
;WIDTH:0.474697
G1 X129.277 Y104.497 E.0048
;WIDTH:0.445932
G1 X129.262 Y105 E.01686
;WIDTH:0.43707
G1 X129.281 Y105.51 E.01673
;WIDTH:0.468535
G1 X129.266 Y105.659 E.0053
;WIDTH:0.5
G1 X129.25 Y105.809 E.00573
G1 X129.15 Y105.648 E.0072
;WIDTH:0.454824
G1 X128.817 Y105.446 E.01334
;WIDTH:0.419999
G1 X128.669 Y105.5 E.00494
G1 X128.583 Y105.78 E.00918
M204 S1000
;WIPE_START
G1 F8640
G1 X128.565 Y105.837 E-.0138
G1 X128.524 Y105.971 E-.03236
G1 X128.2 Y106.628 E-.16915
G1 X127.806 Y107.238 E-.16768
G1 X127.306 Y107.749 E-.16508
G1 X126.716 Y108.152 E-.16498
G1 X126.058 Y108.429 E-.16485
G1 X125.54 Y108.534 E-.1221
;WIPE_END
G1 Z.4 F720
G1 X126.115 Y102.572 F10800
G1 Z.2 F720
G1 E1 F2100
M204 S800
;TYPE:Solid infill
;WIDTH:0.42763
G1 F1200
G1 X126.812 Y103.269 E.03153
G1 X127.11 Y103.642 E.01527
G1 X127.513 Y104.415 E.02789
G1 X127.547 Y104.548 E.00439
G1 X125.56 Y102.56 E.08991
G1 X125.094 Y102.5 E.01503
G1 X124.955 Y102.499 E.00445
G1 X127.629 Y105.173 E.12097
G1 X127.51 Y105.598 E.01412
G1 X124.471 Y102.56 E.13746
G1 X124.261 Y102.603 E.00686
G1 X124.056 Y102.689 E.00711
G1 X127.33 Y105.963 E.14811
G1 X127.129 Y106.306 E.01272
G1 X123.693 Y102.87 E.15544
G1 X123.373 Y103.093 E.01248
G1 X126.903 Y106.624 E.15972
G1 X126.634 Y106.899 E.01231
M73 P7 R5
G1 X123.104 Y103.369 E.15969
G1 X123.039 Y103.436 E.00299
G1 X122.877 Y103.686 E.00953
G1 X126.315 Y107.124 E.15553
M73 Q7 S5
G1 X126.2 Y107.203 E.00446
G1 X125.954 Y107.307 E.00854
G1 X122.675 Y104.028 E.14834
G1 X122.495 Y104.392 E.01299
G1 X125.54 Y107.438 E.13778
G1 X125.25 Y107.496 E.00946
G1 X125.055 Y107.496 E.00624
G1 X122.376 Y104.817 E.1212
G1 X122.28 Y105 E.00661
G1 X122.327 Y105.065 E.00257
G1 X122.397 Y105.237 E.00594
G1 X122.448 Y105.433 E.00648
G1 X124.45 Y107.436 E.09059
G1 X124.261 Y107.397 E.00617
G1 X123.8 Y107.203 E.016
G1 X123.403 Y106.933 E.01536
G1 X122.527 Y106.056 E.03965
M204 S1000
;WIPE_START
G1 F8640
G1 X123.403 Y106.933 E-.28622
G1 X123.8 Y107.203 E-.11086
G1 X124.261 Y107.397 E-.11549
G1 X124.45 Y107.436 E-.04456
G1 X123.094 Y106.08 E-.44287
;WIPE_END
G1 Z.4 F720
; stop printing object Puncher.stl id:0 copy 0
; printing object Bumper.stl_3 id:2 copy 0
G1 X128.41 Y80.544 F10800
G1 Z.2 F720
G1 E1 F2100
M204 S800
;TYPE:External perimeter
;WIDTH:0.38292
G1 F1200
G1 X128.403 Y80.456 E.0025
M204 S1000
;WIPE_START
G1 F8640
G1 X128.41 Y80.544 E-.02038
;WIPE_END
G1 E-.97962 F2100
G1 Z.4 F720
; stop printing object Bumper.stl_3 id:2 copy 0
; printing object Bumper.stl_3 id:1 copy 0
G1 X115.91 Y68.044 F10800
G1 Z.2 F720
G1 E1 F2100
M204 S800
G1 F1200
G1 X115.903 Y67.956 E.0025
M204 S1000
;LAYER_CHANGE
;Z:0.4
;HEIGHT:0.2
;BEFORE_LAYER_CHANGE
G92 E0.0
;0.4


;WIPE_START
G1 F8640
G1 X115.91 Y68.044 E-.02038
;WIPE_END
G1 E-.97962 F2100
G1 Z.4 F720
;AFTER_LAYER_CHANGE
;0.4
M140 S90 ; set bed temperature
; stop printing object Bumper.stl_3 id:1 copy 0
G1 Z.6
G1 X116.943 Y65.306 F10800
G1 Z.4 F720
G1 E1 F2100
;TYPE:Skirt/Brim
;WIDTH:0.42
G1 F1608
G1 X117.804 Y65.644 E.029
G1 X130.304 Y78.144 E.55427
G1 X131.053 Y79.846 E.0583
M73 P8 R5
G1 X132.063 Y102.888 E.72316
G1 X132.066 Y107 E.12893
M73 Q8 S5
G1 X131.673 Y108.363 E.04448
G1 X130.795 Y109.215 E.03836
G1 X128.026 Y110.825 E.10043
G1 X127.056 Y111.233 E.03299
G1 X126.175 Y111.458 E.02851
G1 X125.128 Y111.562 E.03299
G1 X124.22 Y111.517 E.0285
G1 X122.944 Y111.233 E.04099
G1 X121.974 Y110.825 E.03299
G1 X119.205 Y109.215 E.10043
G1 X118.226 Y108.188 E.04449
G1 X117.958 Y107.35 E.02759
G1 X112.575 Y68.216 E1.23857
G1 X112.573 Y67.529 E.02154
G1 X112.668 Y67.082 E.01433
G1 X113.207 Y66.062 E.03617
G1 X114.065 Y65.35 E.03496
G1 X115 Y64.999 E.03131
G1 X115.893 Y64.895 E.02819
G1 X116.887 Y65.284 E.03347
G1 X116.761 Y65.606 F10800
G1 F1608
G1 X117.537 Y65.911 E.02614
G1 X130.037 Y78.411 E.55427
G1 X130.676 Y79.862 E.04971
M73 P9 R5
M73 Q9 S5
G1 X131.686 Y102.904 E.72316
G1 X131.689 Y107 E.12843
G1 X131.298 Y108.248 E.04101
G1 X130.605 Y108.889 E.0296
G1 X127.862 Y110.485 E.0995
G1 X126.927 Y110.879 E.03181
G1 X126.119 Y111.085 E.02614
G1 X125.109 Y111.186 E.03183
G1 X123.881 Y111.085 E.03863
G1 X123.073 Y110.879 E.02614
G1 X122.138 Y110.485 E.03181
G1 X119.395 Y108.889 E.0995
G1 X118.332 Y107.298 E.05999
G1 X112.948 Y68.164 E1.23858
G1 X112.947 Y67.579 E.01834
M73 P10 R5
G1 X113.032 Y67.178 E.01285
G1 X113.492 Y66.309 E.03083
G1 X114.255 Y65.675 E.0311
G1 X115.074 Y65.368 E.02742
G1 X115.907 Y65.271 E.02629
G1 X116.705 Y65.584 E.02688
;WIPE_START
G1 F8640
G1 X116.761 Y65.606 E-.01389
G1 X117.537 Y65.911 E-.19252
G1 X119.967 Y68.341 E-.79359
;WIPE_END
G1 Z.6 F720
; printing object Puncher.stl id:0 copy 0
G1 X129.248 Y104.239 F10800
G1 Z.4 F720
M73 Q10 S5
G1 E1 F2100
M204 S800
;TYPE:External perimeter
;WIDTH:0.503462
G1 F1500
G1 X129.25 Y103.25 E.03787
M204 S1000
;WIPE_START
G1 F8640
G1 X129.248 Y104.239 E-.22836
;WIPE_END
G1 E-.77164 F2100
G1 Z.6 F720
G1 X129.25 Y106.75 F10800
G1 Z.4 F720
G1 E1 F2100
M204 S800
;WIDTH:0.5
G1 F1500
G1 X129.25 Y105.8 E.03611
M204 S1000
;WIPE_START
G1 F8640
G1 X129.25 Y106.75 E-.21936
;WIPE_END
G1 E-.78064 F2100
G1 Z.6 F720
G1 X120.75 Y106.75 F10800
G1 Z.4 F720
G1 E1 F2100
M204 S800
;WIDTH:0.499994
G1 F1500
G1 X120.75 Y105.8 E.03611
M204 S1000
;WIPE_START
G1 F8640
G1 X120.75 Y106.75 E-.21936
;WIPE_END
G1 E-.78064 F2100
G1 Z.6 F720
G1 X120.752 Y104.239 F10800
G1 Z.4 F720
G1 E1 F2100
M204 S800
;WIDTH:0.503458
G1 F1500
G1 X120.75 Y104.2 E.0015
;WIDTH:0.499994
G1 X120.75 Y103.25 E.03611
M204 S1000
;WIPE_START
G1 F8640
G1 X120.75 Y104.2 E-.21936
G1 X120.752 Y104.239 E-.00902
;WIPE_END
G1 E-.77162 F2100
G1 Z.6 F720
G1 X128.303 Y105 F10800
G1 Z.4 F720
G1 E1 F2100
M204 S800
;TYPE:Perimeter
;WIDTH:0.449999
G1 F1500
G1 X128.145 Y105.099 E.00631
G1 X127.998 Y105.309 E.00868
G1 X127.919 Y105.504 E.00712
G1 X127.753 Y106.077 E.02019
G1 X127.483 Y106.604 E.02004
G1 X127.116 Y107.064 E.01992
G1 X126.665 Y107.442 E.01992
G1 X126.148 Y107.724 E.01993
G1 X125.586 Y107.897 E.0199
G1 X125 Y107.956 E.01994
G1 X124.414 Y107.897 E.01994
G1 X123.852 Y107.724 E.0199
G1 X123.335 Y107.442 E.01993
G1 X122.884 Y107.064 E.01992
G1 X122.517 Y106.604 E.01992
G1 X122.247 Y106.077 E.02004
G1 X122.057 Y105.429 E.02286
G1 X121.855 Y105.099 E.0131
G1 X121.697 Y105 E.00631
G1 X121.855 Y104.901 E.00631
G1 X122.002 Y104.691 E.00868
G1 X122.081 Y104.496 E.00712
G1 X122.247 Y103.923 E.02019
G1 X122.517 Y103.396 E.02004
G1 X122.884 Y102.936 E.01992
G1 X123.335 Y102.558 E.01992
G1 X123.852 Y102.276 E.01993
G1 X124.439 Y102.095 E.02079
G1 X125.06 Y102.046 E.02109
G1 X125.582 Y102.102 E.01777
G1 X126.148 Y102.276 E.02004
G1 X126.665 Y102.558 E.01993
G1 X127.116 Y102.936 E.01992
G1 X127.483 Y103.396 E.01992
G1 X127.753 Y103.923 E.02004
G1 X127.943 Y104.571 E.02286
G1 X128.145 Y104.901 E.0131
